;FLAVOR:RepRap
;TIME:4508
;Filament used: 3.71338m
;Layer height: 0.2
;Generated with Cura_SteamEngine 2.5.0-twosilly
M104 S210
M109 S210
G28 ;Home
G1 Z15.0 F6000 ;Move the platform down 15mm
;Prime the extruder
G92 E0
G1 F200 E10
G92 E0
;LAYER_COUNT:155
;LAYER:0
M107
G0 F2700 X32.365 Y31.07 Z0.3
;TYPE:SKIRT
G1 F1200 X32.757 Y30.705 E0.02666
G1 X33.199 Y30.401 E0.05335
G1 X33.681 Y30.167 E0.08002
G1 X34.193 Y30.007 E0.10671
G1 X34.723 Y29.924 E0.13341
G1 X35.009 Y29.913 E0.14765
G1 X64.991 Y29.914 E1.63972
G1 X65.526 Y29.954 E1.66642
G1 X66.049 Y30.073 E1.69311
G1 X66.548 Y30.268 E1.71977
G1 X67.013 Y30.536 E1.74648
G1 X67.433 Y30.869 E1.77316
G1 X67.799 Y31.261 E1.79985
G1 X68.102 Y31.703 E1.82651
G1 X68.336 Y32.186 E1.85322
G1 X68.496 Y32.697 E1.87987
G1 X68.579 Y33.227 E1.90657
G1 X68.59 Y33.513 E1.92081
G1 X68.59 Y66.494 E3.56213
G1 X68.55 Y67.029 E3.58883
G1 X68.431 Y67.552 E3.61552
G1 X68.236 Y68.051 E3.64218
G1 X67.968 Y68.516 E3.66889
G1 X67.635 Y68.936 E3.69556
G1 X67.243 Y69.301 E3.72222
G1 X66.801 Y69.605 E3.74892
G1 X66.319 Y69.839 E3.77558
G1 X65.807 Y69.999 E3.80228
G1 X65.277 Y70.082 E3.82897
G1 X64.991 Y70.093 E3.84322
G1 X35.009 Y70.093 E5.33528
G1 X34.474 Y70.053 E5.36198
G1 X33.951 Y69.934 E5.38868
G1 X33.452 Y69.739 E5.41534
G1 X32.987 Y69.471 E5.44205
G1 X32.567 Y69.138 E5.46872
G1 X32.202 Y68.746 E5.49538
G1 X31.898 Y68.304 E5.52207
G1 X31.664 Y67.822 E5.54874
G1 X31.504 Y67.31 E5.57543
G1 X31.421 Y66.78 E5.60213
G1 X31.41 Y66.494 E5.61637
G1 X31.41 Y33.512 E7.25774
G1 X31.45 Y32.977 E7.28444
G1 X31.569 Y32.454 E7.31113
G1 X31.764 Y31.955 E7.33779
G1 X32.032 Y31.49 E7.3645
G1 X32.365 Y31.07 E7.39117
G0 F2700 X32.758 Y31.237
G1 F1200 X33.145 Y30.911 E7.41636
G1 X33.578 Y30.65 E7.44152
G1 X34.046 Y30.46 E7.46665
G1 X34.539 Y30.347 E7.49182
G1 X35.009 Y30.312 E7.51528
G1 X64.991 Y30.313 E9.00735
G1 X65.495 Y30.353 E9.03251
G1 X65.986 Y30.472 E9.05765
G1 X66.453 Y30.667 E9.08283
G1 X66.883 Y30.932 E9.10797
G1 X67.266 Y31.263 E9.13316
G1 X67.592 Y31.649 E9.15831
G1 X67.853 Y32.082 E9.18347
G1 X68.043 Y32.55 E9.2086
G1 X68.156 Y33.043 E9.23377
G1 X68.191 Y33.513 E9.25723
G1 X68.191 Y66.494 E10.89854
G1 X68.151 Y66.998 E10.9237
G1 X68.032 Y67.489 E10.94885
G1 X67.838 Y67.956 E10.97401
G1 X67.572 Y68.386 E10.99918
G1 X67.242 Y68.769 E11.02433
G1 X66.855 Y69.095 E11.04952
G1 X66.422 Y69.356 E11.07468
G1 X65.954 Y69.546 E11.09981
G1 X65.461 Y69.659 E11.12498
G1 X64.991 Y69.694 E11.14844
G1 X35.009 Y69.694 E12.64051
G1 X34.505 Y69.654 E12.66567
G1 X34.014 Y69.535 E12.69081
G1 X33.547 Y69.341 E12.71598
G1 X33.117 Y69.075 E12.74114
G1 X32.734 Y68.745 E12.7663
G1 X32.408 Y68.358 E12.79148
G1 X32.147 Y67.925 E12.81664
G1 X31.957 Y67.457 E12.84178
G1 X31.844 Y66.964 E12.86695
G1 X31.809 Y66.494 E12.8904
G1 X31.809 Y33.512 E14.53177
G1 X31.849 Y33.008 E14.55693
G1 X31.968 Y32.517 E14.58207
G1 X32.162 Y32.05 E14.60724
G1 X32.428 Y31.62 E14.6324
G1 X32.758 Y31.237 E14.65756
G1 F3600 E8.15756
G0 F2700 X35.611 Y32.838
G0 X35.611 Y34.114
G0 X35.996 Y34.499
;TYPE:WALL-INNER
G1 F3600 E14.65756
G1 F1200 X64.004 Y34.499 E16.05139
G1 X64.004 Y65.507 E17.59452
G1 X35.996 Y65.507 E18.98835
G1 X35.996 Y34.499 E20.53148
G0 F2700 X35.597 Y34.1
G1 F1200 X64.403 Y34.1 E21.96502
G1 X64.403 Y65.906 E23.54786
G1 X35.597 Y65.906 E24.98141
G1 X35.597 Y34.1 E26.56425
G0 F2700 X35.199 Y33.702
;TYPE:WALL-OUTER
G1 F1200 X64.801 Y33.702 E28.0374
G1 X64.801 Y66.304 E29.65986
G1 X35.199 Y66.304 E31.13302
G1 X35.199 Y33.702 E32.75547
G0 F2700 X35.399 Y33.702
G0 X35.667 Y34.17
G0 X63.805 Y34.698
G0 X63.457 Y34.679
;TYPE:SKIN
G1 F1200 X63.824 Y35.046 E32.7813
G0 F2700 X63.824 Y35.61
G1 F1200 X62.892 Y34.679 E32.84686
G1 X62.822 Y34.61
G0 F2700 X62.328 Y34.679
G1 F1200 X63.824 Y36.174 E32.95211
G1 X63.894 Y36.244
G0 F2700 X63.824 Y36.739
G1 F1200 X61.764 Y34.679 E33.09709
G1 X61.694 Y34.609
G0 F2700 X61.2 Y34.679
G1 F1200 X63.824 Y37.303 E33.28176
G1 X63.894 Y37.373
G0 F2700 X63.824 Y37.867
G1 F1200 X60.635 Y34.679 E33.50617
G1 X60.565 Y34.61
G0 F2700 X60.071 Y34.679
G1 F1200 X63.824 Y38.431 E33.77027
G1 X63.894 Y38.501
G0 F2700 X63.824 Y38.996
G1 F1200 X59.507 Y34.679 E34.07409
G1 X59.437 Y34.609
G0 F2700 X58.943 Y34.679
G1 F1200 X63.824 Y39.56 E34.41761
G1 X63.894 Y39.63
G0 F2700 X63.824 Y40.124
G1 F1200 X58.378 Y34.679 E34.80086
G1 X58.308 Y34.61
G0 F2700 X57.814 Y34.679
G1 F1200 X63.824 Y40.689 E35.22384
G1 X63.894 Y40.759
G0 F2700 X63.824 Y41.253
G1 F1200 X57.25 Y34.679 E35.68651
G1 X57.18 Y34.609
G0 F2700 X56.685 Y34.679
G1 F1200 X63.824 Y41.817 E36.18891
G1 X63.894 Y41.887
G0 F2700 X63.824 Y42.381
G1 F1200 X56.121 Y34.679 E36.731
G1 X56.051 Y34.609
G0 F2700 X55.557 Y34.679
G1 F1200 X63.824 Y42.946 E37.31283
G1 X63.894 Y43.016
G0 F2700 X63.824 Y43.51
G1 F1200 X54.993 Y34.679 E37.93434
G1 X54.923 Y34.609
G0 F2700 X54.428 Y34.679
G1 F1200 X63.824 Y44.074 E38.59559
G1 X63.894 Y44.144
G0 F2700 X63.824 Y44.638
G1 F1200 X53.864 Y34.679 E39.29653
G1 X53.794 Y34.609
G0 F2700 X53.3 Y34.679
G1 F1200 X63.824 Y45.203 E40.0372
G1 X63.894 Y45.273
G0 F2700 X63.824 Y45.767
G1 F1200 X52.736 Y34.679 E40.81756
G1 X52.666 Y34.609
G0 F2700 X52.171 Y34.679
G1 F1200 X63.824 Y46.331 E41.63765
G1 X63.894 Y46.401
G0 F2700 X63.824 Y46.896
G1 F1200 X51.607 Y34.679 E42.49747
G1 X51.537 Y34.609
G0 F2700 X51.043 Y34.679
G1 F1200 X63.824 Y47.46 E43.39699
G1 X63.894 Y47.53
G0 F2700 X63.824 Y48.024
G1 F1200 X50.478 Y34.679 E44.33623
G1 X50.408 Y34.609
G0 F2700 X49.914 Y34.679
G1 F1200 X63.824 Y48.588 E45.31517
G1 X63.894 Y48.658
G0 F2700 X63.824 Y49.153
G1 F1200 X49.35 Y34.679 E46.33383
G1 X49.28 Y34.609
G0 F2700 X48.786 Y34.679
G1 F1200 X63.824 Y49.717 E47.39219
G1 X63.894 Y49.787
G0 F2700 X63.824 Y50.281
G1 F1200 X48.221 Y34.679 E48.49028
G1 X48.151 Y34.609
G0 F2700 X47.657 Y34.679
G1 F1200 X63.824 Y50.845 E49.62806
G1 X63.894 Y50.915
G0 F2700 X63.824 Y51.41
G1 F1200 X47.093 Y34.679 E50.80558
G1 X47.023 Y34.609
G0 F2700 X46.529 Y34.679
G1 F1200 X63.824 Y51.974 E52.02278
G1 X63.894 Y52.044
G0 F2700 X63.824 Y52.538
G1 F1200 X45.964 Y34.679 E53.27971
G1 X45.894 Y34.609
G0 F2700 X45.4 Y34.679
G1 F1200 X63.824 Y53.103 E54.57638
G1 X63.894 Y53.173
G0 F2700 X63.824 Y53.667
G1 F1200 X44.836 Y34.679 E55.91273
G1 X44.766 Y34.609
G0 F2700 X44.271 Y34.679
G1 F1200 X63.824 Y54.231 E57.28882
G1 X63.894 Y54.301
G0 F2700 X63.824 Y54.795
G1 F1200 X43.707 Y34.679 E58.7046
G1 X43.637 Y34.609
G0 F2700 X43.143 Y34.679
G1 F1200 X63.824 Y55.36 E60.16011
G1 X63.894 Y55.43
G0 F2700 X63.824 Y55.924
G1 F1200 X42.579 Y34.679 E61.65531
G1 X42.509 Y34.609
G0 F2700 X42.014 Y34.679
G1 F1200 X63.824 Y56.488 E63.19024
G1 X63.894 Y56.558
G0 F2700 X63.824 Y57.052
G1 F1200 X41.45 Y34.679 E64.76487
G1 X41.38 Y34.609
G0 F2700 X40.886 Y34.679
G1 F1200 X63.824 Y57.617 E66.37922
G1 X63.894 Y57.687
G0 F2700 X63.824 Y58.181
G1 F1200 X40.322 Y34.679 E68.03327
G1 X40.252 Y34.609
G0 F2700 X39.757 Y34.679
G1 F1200 X63.824 Y58.745 E69.72704
G1 X63.894 Y58.815
G0 F2700 X63.824 Y59.309
G1 F1200 X39.193 Y34.679 E71.46051
G1 X39.123 Y34.609
G0 F2700 X38.629 Y34.679
G1 F1200 X63.824 Y59.874 E73.23371
G1 X63.894 Y59.944
G0 F2700 X63.824 Y60.438
G1 F1200 X38.064 Y34.679 E75.04664
G1 X37.994 Y34.609
G0 F2700 X37.5 Y34.679
G1 F1200 X63.824 Y61.002 E76.89926
G1 X63.894 Y61.072
G0 F2700 X63.824 Y61.567
G1 F1200 X36.936 Y34.679 E78.79161
G1 X36.866 Y34.609
G0 F2700 X36.372 Y34.679
G1 F1200 X63.824 Y62.131 E80.72366
G1 X63.894 Y62.201
G0 F2700 X63.824 Y62.695
G1 F1200 X36.175 Y35.047 E82.66953
G1 X36.105 Y34.977
G0 F2700 X36.175 Y35.611
G1 F1200 X63.824 Y63.259 E84.61541
G1 X63.894 Y63.329
G0 F2700 X63.824 Y63.824
G1 F1200 X36.175 Y36.175 E86.56132
G1 X36.105 Y36.105
G0 F2700 X36.175 Y36.739
G1 F1200 X63.824 Y64.388 E88.50723
G1 X63.894 Y64.458
G0 F2700 X63.824 Y64.952
G1 F1200 X36.175 Y37.304 E90.4531
G1 X36.105 Y37.234
G0 F2700 X36.175 Y37.868
G1 F1200 X63.633 Y65.326 E92.38557
G1 X63.703 Y65.396
G0 F2700 X63.068 Y65.326
G1 F1200 X36.175 Y38.432 E94.2783
G1 X36.105 Y38.362
G0 F2700 X36.175 Y38.996
G1 F1200 X62.504 Y65.326 E96.13135
G1 X62.574 Y65.396
G0 F2700 X61.94 Y65.326
G1 F1200 X36.175 Y39.561 E97.94466
G1 X36.105 Y39.491
G0 F2700 X36.175 Y40.125
G1 F1200 X61.376 Y65.326 E99.71829
G1 X61.446 Y65.396
G0 F2700 X60.811 Y65.326
G1 F1200 X36.175 Y40.689 E101.45218
G1 X36.105 Y40.619
G0 F2700 X36.175 Y41.254
G1 F1200 X60.247 Y65.326 E103.14634
G1 X60.317 Y65.396
G0 F2700 X59.683 Y65.326
G1 F1200 X36.175 Y41.818 E104.80081
G1 X36.105 Y41.748
G0 F2700 X36.175 Y42.382
G1 F1200 X59.119 Y65.326 E106.41559
G1 X59.189 Y65.396
G0 F2700 X58.554 Y65.326
G1 F1200 X36.175 Y42.946 E107.99063
G1 X36.105 Y42.876
G0 F2700 X36.175 Y43.511
G1 F1200 X57.99 Y65.326 E109.52595
G1 X58.06 Y65.396
G0 F2700 X57.426 Y65.326
G1 F1200 X36.175 Y44.075 E111.02158
G1 X36.105 Y44.005
G0 F2700 X36.175 Y44.639
G1 F1200 X56.861 Y65.326 E112.47747
G1 X56.931 Y65.396
G0 F2700 X56.297 Y65.326
G1 F1200 X36.175 Y45.203 E113.89367
G1 X36.105 Y45.133
G0 F2700 X36.175 Y45.768
G1 F1200 X55.733 Y65.326 E115.27015
G1 X55.803 Y65.396
G0 F2700 X55.169 Y65.326
G1 F1200 X36.175 Y46.332 E116.60693
G1 X36.105 Y46.262
G0 F2700 X36.175 Y46.896
G1 F1200 X54.604 Y65.326 E117.90398
G1 X54.674 Y65.396
G0 F2700 X54.04 Y65.326
G1 F1200 X36.175 Y47.461 E119.1613
G1 X36.105 Y47.391
G0 F2700 X36.175 Y48.025
G1 F1200 X53.476 Y65.326 E120.37892
G1 X53.546 Y65.396
G0 F2700 X52.912 Y65.326
G1 F1200 X36.175 Y48.589 E121.55686
G1 X36.105 Y48.519
G0 F2700 X36.175 Y49.153
G1 F1200 X52.347 Y65.326 E122.69506
G1 X52.417 Y65.396
G0 F2700 X51.783 Y65.326
G1 F1200 X36.175 Y49.718 E123.79354
G1 X36.105 Y49.648
G0 F2700 X36.175 Y50.282
G1 F1200 X51.219 Y65.326 E124.85232
G1 X51.289 Y65.396
G0 F2700 X50.655 Y65.326
G1 F1200 X36.175 Y50.846 E125.87141
G1 X36.105 Y50.776
G0 F2700 X36.175 Y51.41
G1 F1200 X50.09 Y65.326 E126.85077
G1 X50.16 Y65.396
G0 F2700 X49.526 Y65.326
G1 F1200 X36.175 Y51.975 E127.7904
G1 X36.105 Y51.905
G0 F2700 X36.175 Y52.539
G1 F1200 X48.962 Y65.326 E128.69033
G1 X49.032 Y65.396
G0 F2700 X48.397 Y65.326
G1 F1200 X36.175 Y53.103 E129.55054
G1 X36.105 Y53.033
G0 F2700 X36.175 Y53.667
G1 F1200 X47.833 Y65.326 E130.37106
G1 X47.903 Y65.396
G0 F2700 X47.269 Y65.326
G1 F1200 X36.175 Y54.232 E131.15184
G1 X36.105 Y54.162
G0 F2700 X36.175 Y54.796
G1 F1200 X46.705 Y65.326 E131.89293
G1 X46.775 Y65.396
G0 F2700 X46.14 Y65.326
G1 F1200 X36.175 Y55.36 E132.59429
G1 X36.105 Y55.29
G0 F2700 X36.175 Y55.925
G1 F1200 X45.576 Y65.326 E133.25593
G1 X45.646 Y65.396
G0 F2700 X45.012 Y65.326
G1 F1200 X36.175 Y56.489 E133.87787
G1 X36.105 Y56.419
G0 F2700 X36.175 Y57.053
G1 F1200 X44.448 Y65.326 E134.46011
G1 X44.518 Y65.396
G0 F2700 X43.883 Y65.326
G1 F1200 X36.175 Y57.617 E135.00263
G1 X36.105 Y57.547
G0 F2700 X36.175 Y58.182
G1 F1200 X43.319 Y65.326 E135.50542
G1 X43.389 Y65.396
G0 F2700 X42.755 Y65.326
G1 F1200 X36.175 Y58.746 E135.96851
G1 X36.105 Y58.676
G0 F2700 X36.175 Y59.31
G1 F1200 X42.19 Y65.326 E136.39187
G1 X42.259 Y65.396
G0 F2700 X41.626 Y65.326
G1 F1200 X36.175 Y59.874 E136.77555
G1 X36.105 Y59.804
G0 F2700 X36.175 Y60.439
G1 F1200 X41.062 Y65.326 E137.11949
G1 X41.132 Y65.396
G0 F2700 X40.498 Y65.326
G1 F1200 X36.175 Y61.003 E137.42374
G1 X36.105 Y60.933
G0 F2700 X36.175 Y61.567
G1 F1200 X39.933 Y65.326 E137.68826
G1 X40.002 Y65.396
G0 F2700 X39.369 Y65.326
G1 F1200 X36.175 Y62.132 E137.91305
G1 X36.105 Y62.062
G0 F2700 X36.175 Y62.696
G1 F1200 X38.805 Y65.326 E138.09814
G1 X38.875 Y65.396
G0 F2700 X38.241 Y65.326
G1 F1200 X36.175 Y63.26 E138.24355
G1 X36.105 Y63.19
G0 F2700 X36.175 Y63.824
G1 F1200 X37.676 Y65.326 E138.34922
G1 X37.745 Y65.396
G0 F2700 X37.112 Y65.326
G1 F1200 X36.175 Y64.389 E138.41517
G1 X36.105 Y64.319
G0 F2700 X36.175 Y64.953
G1 F1200 X36.548 Y65.326 E138.44142
G0 F2700 X35.996 Y34.499
;TIME_ELAPSED:144.305396
;LAYER:1
G1 F3600 E131.94142
M106 S255
G0 F4050 X35.996 Y34.499 Z0.5
;TYPE:WALL-INNER
G1 F3600 E138.44142
G1 F1500 X64.004 Y34.499 E139.37064
G1 X64.004 Y65.507 E140.39939
G1 X35.996 Y65.507 E141.32861
G1 X35.996 Y34.499 E142.35736
G0 F4050 X35.597 Y34.1
G1 F1500 X64.403 Y34.1 E143.31306
G1 X64.403 Y65.906 E144.36829
G1 X35.597 Y65.906 E145.32398
G1 X35.597 Y34.1 E146.37921
G0 F4050 X35.199 Y33.702
;TYPE:WALL-OUTER
G1 F1500 X64.801 Y33.702 E147.36131
G1 X64.801 Y66.304 E148.44295
G1 X35.199 Y66.304 E149.42506
G1 X35.199 Y33.702 E150.50669
G0 F4050 X35.399 Y33.702
G0 X35.667 Y34.17
G0 X36.195 Y34.698
G0 X36.176 Y34.921
;TYPE:SKIN
G1 F1500 X36.418 Y34.679 E150.51805
G0 F4050 X36.983 Y34.679
G1 F1500 X36.176 Y35.486 E150.55591
G1 X36.106 Y35.556
G0 F4050 X36.176 Y36.05
G1 F1500 X37.547 Y34.679 E150.62024
G1 X37.617 Y34.609
G0 F4050 X38.111 Y34.679
G1 F1500 X36.176 Y36.614 E150.71103
G1 X36.106 Y36.684
G0 F4050 X36.176 Y37.178
G1 F1500 X38.675 Y34.679 E150.82828
G1 X38.745 Y34.609
G0 F4050 X39.24 Y34.679
G1 F1500 X36.176 Y37.743 E150.97204
G1 X36.106 Y37.813
G0 F4050 X36.176 Y38.307
G1 F1500 X39.804 Y34.679 E151.14226
G1 X39.874 Y34.609
G0 F4050 X40.368 Y34.679
G1 F1500 X36.176 Y38.871 E151.33895
G1 X36.106 Y38.941
G0 F4050 X36.176 Y39.436
G1 F1500 X40.932 Y34.679 E151.56212
G1 X41.002 Y34.609
G0 F4050 X41.497 Y34.679
G1 F1500 X36.176 Y40 E151.81178
G1 X36.106 Y40.07
G0 F4050 X36.176 Y40.564
G1 F1500 X42.061 Y34.679 E152.0879
G1 X42.131 Y34.609
G0 F4050 X42.625 Y34.679
G1 F1500 X36.176 Y41.128 E152.39048
G1 X36.106 Y41.198
G0 F4050 X36.176 Y41.693
G1 F1500 X43.19 Y34.679 E152.71957
G1 X43.26 Y34.609
G0 F4050 X43.754 Y34.679
G1 F1500 X36.176 Y42.257 E153.07513
G1 X36.106 Y42.327
G0 F4050 X36.176 Y42.821
G1 F1500 X44.318 Y34.679 E153.45714
G1 X44.388 Y34.609
G0 F4050 X44.882 Y34.679
G1 F1500 X36.176 Y43.385 E153.86562
G1 X36.106 Y43.455
G0 F4050 X36.176 Y43.95
G1 F1500 X45.447 Y34.679 E154.30061
G1 X45.517 Y34.609
G0 F4050 X46.011 Y34.679
G1 F1500 X36.176 Y44.514 E154.76206
G1 X36.106 Y44.584
G0 F4050 X36.176 Y45.078
G1 F1500 X46.575 Y34.679 E155.24998
G1 X46.645 Y34.609
G0 F4050 X47.139 Y34.679
G1 F1500 X36.176 Y45.643 E155.76438
G1 X36.106 Y45.713
G0 F4050 X36.176 Y46.207
G1 F1500 X47.704 Y34.679 E156.30527
G1 X47.774 Y34.609
G0 F4050 X48.268 Y34.679
G1 F1500 X36.176 Y46.771 E156.87261
G1 X36.106 Y46.841
G0 F4050 X36.176 Y47.335
G1 F1500 X48.832 Y34.679 E157.46643
G1 X48.902 Y34.609
G0 F4050 X49.397 Y34.679
G1 F1500 X36.176 Y47.9 E158.08675
G1 X36.106 Y47.97
G0 F4050 X36.176 Y48.464
G1 F1500 X49.961 Y34.679 E158.73353
G1 X50.031 Y34.609
G0 F4050 X50.525 Y34.679
G1 F1500 X36.176 Y49.028 E159.40677
G1 X36.106 Y49.098
G0 F4050 X36.176 Y49.592
G1 F1500 X51.089 Y34.679 E160.10648
G1 X51.159 Y34.609
G0 F4050 X51.654 Y34.679
G1 F1500 X36.176 Y50.157 E160.8327
G1 X36.106 Y50.227
G0 F4050 X36.176 Y50.721
G1 F1500 X52.218 Y34.679 E161.58538
G1 X52.288 Y34.609
G0 F4050 X52.782 Y34.679
G1 F1500 X36.176 Y51.285 E162.36452
G1 X36.106 Y51.355
G0 F4050 X36.176 Y51.85
G1 F1500 X53.346 Y34.679 E163.17015
G1 X53.416 Y34.609
G0 F4050 X53.911 Y34.679
G1 F1500 X36.176 Y52.414 E164.00227
G1 X36.106 Y52.484
G0 F4050 X36.176 Y52.978
G1 F1500 X54.475 Y34.679 E164.86084
G1 X54.545 Y34.609
G0 F4050 X55.039 Y34.679
G1 F1500 X36.176 Y53.542 E165.74588
G1 X36.106 Y53.612
G0 F4050 X36.176 Y54.107
G1 F1500 X55.604 Y34.679 E166.65743
G1 X55.674 Y34.609
G0 F4050 X56.168 Y34.679
G1 F1500 X36.176 Y54.671 E167.59544
G1 X36.106 Y54.741
G0 F4050 X36.176 Y55.235
G1 F1500 X56.732 Y34.679 E168.55992
G1 X56.802 Y34.609
G0 F4050 X57.296 Y34.679
G1 F1500 X36.176 Y55.799 E169.55085
G1 X36.106 Y55.869
G0 F4050 X36.176 Y56.364
G1 F1500 X57.861 Y34.679 E170.5683
G1 X57.931 Y34.609
G0 F4050 X58.425 Y34.679
