;FLAVOR:RepRap
;TIME:4130
;Filament used: 3.49397m
;Layer height: 0.2
;Generated with Cura_SteamEngine 2.5.0-twosilly
M104 S210
M109 S210
G28 ;Home
G1 Z15.0 F6000 ;Move the platform down 15mm
;Prime the extruder
G92 E0
G1 F200 E10
G92 E0
;LAYER_COUNT:155
;LAYER:0
M107
G0 F2700 X30.865 Y32.567 Z0.3
;TYPE:SKIRT
G1 F1200 X31.257 Y32.202 E0.02666
G1 X31.699 Y31.898 E0.05335
G1 X32.181 Y31.664 E0.08002
G1 X32.693 Y31.504 E0.10671
G1 X33.223 Y31.421 E0.13341
G1 X33.509 Y31.41 E0.14765
G1 X66.491 Y31.411 E1.78902
G1 X67.026 Y31.451 E1.81572
G1 X67.549 Y31.57 E1.84241
G1 X68.048 Y31.765 E1.86907
G1 X68.513 Y32.033 E1.89578
G1 X68.933 Y32.366 E1.92245
G1 X69.298 Y32.758 E1.94911
G1 X69.602 Y33.2 E1.97581
G1 X69.836 Y33.683 E2.00251
G1 X69.996 Y34.194 E2.02916
G1 X70.079 Y34.724 E2.05586
G1 X70.09 Y35.01 E2.0701
G1 X70.09 Y64.991 E3.56212
G1 X70.05 Y65.526 E3.58882
G1 X69.931 Y66.049 E3.61551
G1 X69.736 Y66.548 E3.64217
G1 X69.468 Y67.013 E3.66888
G1 X69.135 Y67.433 E3.69556
G1 X68.743 Y67.798 E3.72221
G1 X68.301 Y68.102 E3.74891
G1 X67.819 Y68.336 E3.77557
G1 X67.307 Y68.496 E3.80227
G1 X66.777 Y68.579 E3.82897
G1 X66.491 Y68.59 E3.84321
G1 X33.509 Y68.59 E5.48458
G1 X32.974 Y68.55 E5.51127
G1 X32.451 Y68.431 E5.53797
G1 X31.952 Y68.236 E5.56463
G1 X31.487 Y67.968 E5.59134
G1 X31.067 Y67.635 E5.61801
G1 X30.702 Y67.243 E5.64467
G1 X30.398 Y66.801 E5.67136
G1 X30.164 Y66.319 E5.69803
G1 X30.004 Y65.807 E5.72472
G1 X29.921 Y65.277 E5.75142
G1 X29.91 Y64.991 E5.76566
G1 X29.91 Y35.009 E7.25773
G1 X29.95 Y34.474 E7.28443
G1 X30.069 Y33.951 E7.31112
G1 X30.264 Y33.452 E7.33779
G1 X30.532 Y32.987 E7.36449
G1 X30.865 Y32.567 E7.39117
G0 F2700 X31.258 Y32.734
G1 F1200 X31.645 Y32.408 E7.41635
G1 X32.078 Y32.147 E7.44151
G1 X32.546 Y31.957 E7.46665
G1 X33.039 Y31.844 E7.49182
G1 X33.509 Y31.809 E7.51527
G1 X66.491 Y31.81 E9.15664
G1 X66.995 Y31.85 E9.1818
G1 X67.486 Y31.969 E9.20694
G1 X67.953 Y32.164 E9.23213
G1 X68.383 Y32.429 E9.25726
G1 X68.766 Y32.76 E9.28245
G1 X69.092 Y33.146 E9.3076
G1 X69.353 Y33.579 E9.33276
G1 X69.543 Y34.047 E9.35789
G1 X69.656 Y34.54 E9.38306
G1 X69.691 Y35.01 E9.40652
G1 X69.691 Y64.991 E10.89854
G1 X69.651 Y65.495 E10.9237
G1 X69.532 Y65.986 E10.94884
G1 X69.338 Y66.453 E10.97401
G1 X69.072 Y66.883 E10.99917
G1 X68.742 Y67.266 E11.02433
G1 X68.355 Y67.592 E11.04951
G1 X67.922 Y67.853 E11.07467
G1 X67.454 Y68.043 E11.09981
G1 X66.961 Y68.156 E11.12498
G1 X66.491 Y68.191 E11.14843
G1 X33.509 Y68.191 E12.7898
G1 X33.005 Y68.151 E12.81496
G1 X32.514 Y68.032 E12.8401
G1 X32.047 Y67.838 E12.86527
G1 X31.617 Y67.572 E12.89043
G1 X31.234 Y67.242 E12.91559
G1 X30.908 Y66.855 E12.94077
G1 X30.647 Y66.422 E12.96593
G1 X30.457 Y65.954 E12.99107
G1 X30.344 Y65.461 E13.01624
G1 X30.309 Y64.991 E13.03969
G1 X30.309 Y35.009 E14.53176
G1 X30.349 Y34.505 E14.55692
G1 X30.468 Y34.014 E14.58206
G1 X30.662 Y33.547 E14.60723
G1 X30.928 Y33.117 E14.63239
G1 X31.258 Y32.734 E14.65755
G1 F3600 E8.15755
G0 F2700 X34.111 Y34.335
G0 X34.111 Y35.611
G0 X34.496 Y35.996
;TYPE:WALL-INNER
G1 F3600 E14.65755
G1 F1200 X65.504 Y35.996 E16.20068
G1 X65.504 Y64.004 E17.59451
G1 X34.496 Y64.004 E19.13764
G1 X34.496 Y35.996 E20.53147
G0 F2700 X34.097 Y35.597
G1 F1200 X65.903 Y35.597 E22.11431
G1 X65.903 Y64.403 E23.54786
G1 X34.097 Y64.403 E25.1307
G1 X34.097 Y35.597 E26.56424
G0 F2700 X33.699 Y35.199
;TYPE:WALL-OUTER
G1 F1200 X66.301 Y35.199 E28.18669
G1 X66.301 Y64.801 E29.65985
G1 X33.699 Y64.801 E31.28231
G1 X33.699 Y35.199 E32.75546
G0 F2700 X33.899 Y35.199
G0 X34.167 Y35.667
G0 X34.695 Y63.805
G0 X35.045 Y63.823
;TYPE:SKIN
G1 F1200 X34.675 Y63.453 E32.7815
G0 F2700 X34.675 Y62.889
G1 F1200 X35.609 Y63.823 E32.84724
G1 X35.679 Y63.893
G0 F2700 X36.174 Y63.823
G1 F1200 X34.675 Y62.325 E32.9527
G1 X34.605 Y62.256
G0 F2700 X34.675 Y61.76
G1 F1200 X36.738 Y63.823 E33.09789
G1 X36.808 Y63.893
G0 F2700 X37.302 Y63.823
G1 F1200 X34.675 Y61.196 E33.28278
G1 X34.605 Y61.126
G0 F2700 X34.675 Y60.632
G1 F1200 X37.866 Y63.823 E33.50736
G1 X37.936 Y63.893
G0 F2700 X38.431 Y63.823
G1 F1200 X34.675 Y60.068 E33.77167
G1 X34.605 Y59.999
G0 F2700 X34.675 Y59.503
G1 F1200 X38.995 Y63.823 E34.0757
G1 X39.065 Y63.893
G0 F2700 X39.559 Y63.823
G1 F1200 X34.675 Y58.939 E34.41944
G1 X34.605 Y58.869
G0 F2700 X34.675 Y58.375
G1 F1200 X40.124 Y63.823 E34.8029
G1 X40.194 Y63.893
G0 F2700 X40.688 Y63.823
G1 F1200 X34.675 Y57.81 E35.22608
G1 X34.605 Y57.74
G0 F2700 X34.675 Y57.246
G1 F1200 X41.252 Y63.823 E35.68897
G1 X41.322 Y63.893
G0 F2700 X41.816 Y63.823
G1 F1200 X34.675 Y56.682 E36.19154
G1 X34.605 Y56.612
G0 F2700 X34.675 Y56.118
G1 F1200 X42.381 Y63.823 E36.73385
G1 X42.451 Y63.893
G0 F2700 X42.945 Y63.823
G1 F1200 X34.675 Y55.553 E37.31588
G1 X34.605 Y55.483
G0 F2700 X34.675 Y54.989
G1 F1200 X43.509 Y63.823 E37.93761
G1 X43.579 Y63.893
G0 F2700 X44.073 Y63.823
G1 F1200 X34.675 Y54.425 E38.59903
G1 X34.605 Y54.355
G0 F2700 X34.675 Y53.861
G1 F1200 X44.638 Y63.823 E39.30018
G1 X44.708 Y63.893
G0 F2700 X45.202 Y63.823
G1 F1200 X34.675 Y53.296 E40.04106
G1 X34.605 Y53.226
G0 F2700 X34.675 Y52.732
G1 F1200 X45.766 Y63.823 E40.82164
G1 X45.836 Y63.893
G0 F2700 X46.331 Y63.823
G1 F1200 X34.675 Y52.168 E41.64194
G1 X34.605 Y52.098
G0 F2700 X34.675 Y51.603
G1 F1200 X46.895 Y63.823 E42.50197
G1 X46.965 Y63.893
G0 F2700 X47.459 Y63.823
G1 F1200 X34.675 Y51.039 E43.4017
G1 X34.605 Y50.969
G0 F2700 X34.675 Y50.475
G1 F1200 X48.023 Y63.823 E44.34112
G1 X48.093 Y63.893
G0 F2700 X48.588 Y63.823
G1 F1200 X34.675 Y49.911 E45.32026
G1 X34.605 Y49.841
G0 F2700 X34.675 Y49.346
G1 F1200 X49.152 Y63.823 E46.33914
G1 X49.222 Y63.893
G0 F2700 X49.716 Y63.823
G1 F1200 X34.675 Y48.782 E47.39771
G1 X34.605 Y48.712
G0 F2700 X34.675 Y48.218
G1 F1200 X50.28 Y63.823 E48.49598
G1 X50.35 Y63.893
G0 F2700 X50.845 Y63.823
G1 F1200 X34.675 Y47.654 E49.63397
G1 X34.605 Y47.584
G0 F2700 X34.675 Y47.089
G1 F1200 X51.409 Y63.823 E50.81169
G1 X51.479 Y63.893
G0 F2700 X51.973 Y63.823
G1 F1200 X34.675 Y46.525 E52.02911
G1 X34.605 Y46.455
G0 F2700 X34.675 Y45.961
G1 F1200 X52.538 Y63.823 E53.28625
G1 X52.608 Y63.893
G0 F2700 X53.102 Y63.823
G1 F1200 X34.675 Y45.396 E54.58313
G1 X34.605 Y45.326
G0 F2700 X34.675 Y44.832
G1 F1200 X53.666 Y63.823 E55.9197
G1 X53.736 Y63.893
G0 F2700 X54.23 Y63.823
G1 F1200 X34.675 Y44.268 E57.29596
G1 X34.605 Y44.198
G0 F2700 X34.675 Y43.704
G1 F1200 X54.795 Y63.823 E58.71195
G1 X54.865 Y63.893
G0 F2700 X55.359 Y63.823
G1 F1200 X34.675 Y43.139 E60.16767
G1 X34.605 Y43.069
G0 F2700 X34.675 Y42.575
G1 F1200 X55.923 Y63.823 E61.66308
G1 X55.993 Y63.893
G0 F2700 X56.487 Y63.823
G1 F1200 X34.675 Y42.011 E63.19819
G1 X34.605 Y41.941
G0 F2700 X34.675 Y41.447
G1 F1200 X57.052 Y63.823 E64.77302
G1 X57.122 Y63.893
G0 F2700 X57.616 Y63.823
G1 F1200 X34.675 Y40.882 E66.38759
G1 X34.605 Y40.812
G0 F2700 X34.675 Y40.318
G1 F1200 X58.18 Y63.823 E68.04185
G1 X58.25 Y63.893
G0 F2700 X58.745 Y63.823
G1 F1200 X34.675 Y39.754 E69.73584
G1 X34.605 Y39.684
G0 F2700 X34.675 Y39.189
G1 F1200 X59.309 Y63.823 E71.46955
G1 X59.379 Y63.893
G0 F2700 X59.873 Y63.823
G1 F1200 X34.675 Y38.625 E73.24296
G1 X34.605 Y38.555
G0 F2700 X34.675 Y38.061
G1 F1200 X60.437 Y63.823 E75.05607
G1 X60.507 Y63.893
G0 F2700 X61.002 Y63.823
G1 F1200 X34.675 Y37.497 E76.9089
G1 X34.605 Y37.427
G0 F2700 X34.675 Y36.932
G1 F1200 X61.566 Y63.823 E78.80146
G1 X61.636 Y63.893
G0 F2700 X62.13 Y63.823
G1 F1200 X34.675 Y36.368 E80.73372
G1 X34.605 Y36.298
G0 F2700 X35.047 Y36.175
G1 F1200 X62.694 Y63.823 E82.67952
G1 X62.764 Y63.893
G0 F2700 X63.259 Y63.823
G1 F1200 X35.611 Y36.175 E84.62536
G1 X35.541 Y36.105
G0 F2700 X36.175 Y36.175
G1 F1200 X63.823 Y63.823 E86.5712
G1 X63.893 Y63.893
G0 F2700 X64.387 Y63.823
G1 F1200 X36.739 Y36.175 E88.51704
G1 X36.669 Y36.105
G0 F2700 X37.304 Y36.175
G1 F1200 X64.952 Y63.823 E90.46288
G1 X65.022 Y63.893
G0 F2700 X65.323 Y63.63
G1 F1200 X37.868 Y36.175 E92.39513
G1 X37.798 Y36.105
G0 F2700 X38.432 Y36.175
G1 F1200 X65.323 Y63.066 E94.28769
G1 X65.393 Y63.136
G0 F2700 X65.323 Y62.501
G1 F1200 X38.996 Y36.175 E96.14053
G1 X38.926 Y36.105
G0 F2700 X39.561 Y36.175
G1 F1200 X65.323 Y61.937 E97.95363
G1 X65.393 Y62.007
G0 F2700 X65.323 Y61.373
G1 F1200 X40.125 Y36.175 E99.72704
G1 X40.055 Y36.105
G0 F2700 X40.689 Y36.175
G1 F1200 X65.323 Y60.809 E101.46076
G1 X65.393 Y60.879
G0 F2700 X65.323 Y60.244
G1 F1200 X41.254 Y36.175 E103.15471
G1 X41.184 Y36.105
G0 F2700 X41.818 Y36.175
G1 F1200 X65.323 Y59.68 E104.80897
G1 X65.393 Y59.75
G0 F2700 X65.323 Y59.116
G1 F1200 X42.382 Y36.175 E106.42353
G1 X42.312 Y36.105
G0 F2700 X42.946 Y36.175
G1 F1200 X65.323 Y58.551 E107.99837
G1 X65.393 Y58.621
G0 F2700 X65.323 Y57.987
G1 F1200 X43.511 Y36.175 E109.53348
G1 X43.441 Y36.105
G0 F2700 X44.075 Y36.175
G1 F1200 X65.323 Y57.423 E111.02889
G1 X65.393 Y57.493
G0 F2700 X65.323 Y56.859
G1 F1200 X44.639 Y36.175 E112.48461
G1 X44.569 Y36.105
G0 F2700 X45.203 Y36.175
G1 F1200 X65.323 Y56.294 E113.9006
G1 X65.393 Y56.364
G0 F2700 X65.323 Y55.73
G1 F1200 X45.768 Y36.175 E115.27686
G1 X45.698 Y36.105
G0 F2700 X46.332 Y36.175
G1 F1200 X65.323 Y55.166 E116.61343
G1 X65.393 Y55.236
G0 F2700 X65.323 Y54.602
G1 F1200 X46.896 Y36.175 E117.9103
G1 X46.826 Y36.105
G0 F2700 X47.461 Y36.175
G1 F1200 X65.323 Y54.037 E119.16741
G1 X65.393 Y54.107
G0 F2700 X65.323 Y53.473
G1 F1200 X48.025 Y36.175 E120.38483
G1 X47.955 Y36.105
G0 F2700 X48.589 Y36.175
G1 F1200 X65.323 Y52.909 E121.56255
G1 X65.393 Y52.979
G0 F2700 X65.323 Y52.344
G1 F1200 X49.153 Y36.175 E122.70055
G1 X49.083 Y36.105
G0 F2700 X49.718 Y36.175
G1 F1200 X65.323 Y51.78 E123.79881
G1 X65.393 Y51.85
G0 F2700 X65.323 Y51.216
G1 F1200 X50.283 Y36.176 E124.85731
G1 X50.213 Y36.106
G0 F2700 X50.847 Y36.176
G1 F1200 X65.323 Y50.652 E125.87612
G1 X65.393 Y50.722
G0 F2700 X65.323 Y50.087
G1 F1200 X51.411 Y36.176 E126.8552
G1 X51.341 Y36.106
G0 F2700 X51.975 Y36.176
G1 F1200 X65.323 Y49.523 E127.79458
G1 X65.393 Y49.593
G0 F2700 X65.323 Y48.959
G1 F1200 X52.54 Y36.176 E128.69423
G1 X52.47 Y36.106
G0 F2700 X53.104 Y36.176
G1 F1200 X65.323 Y48.395 E129.5542
G1 X65.393 Y48.465
G0 F2700 X65.323 Y47.83
G1 F1200 X53.668 Y36.176 E130.37443
G1 X53.598 Y36.106
G0 F2700 X54.232 Y36.176
G1 F1200 X65.323 Y47.266 E131.15497
G1 X65.393 Y47.336
G0 F2700 X65.323 Y46.702
G1 F1200 X54.797 Y36.176 E131.89578
G1 X54.727 Y36.106
G0 F2700 X55.361 Y36.176
G1 F1200 X65.323 Y46.138 E132.59689
G1 X65.393 Y46.208
G0 F2700 X65.323 Y45.573
G1 F1200 X55.925 Y36.176 E133.25828
G1 X55.855 Y36.106
G0 F2700 X56.49 Y36.176
G1 F1200 X65.323 Y45.009 E133.87994
G1 X65.393 Y45.079
G0 F2700 X65.323 Y44.445
G1 F1200 X57.054 Y36.176 E134.4619
G1 X56.984 Y36.106
G0 F2700 X57.618 Y36.176
G1 F1200 X65.323 Y43.88 E135.00413
G1 X65.393 Y43.95
G0 F2700 X65.323 Y43.316
G1 F1200 X58.182 Y36.176 E135.50668
G1 X58.112 Y36.106
G0 F2700 X58.747 Y36.176
G1 F1200 X65.323 Y42.752 E135.96949
G1 X65.393 Y42.822
G0 F2700 X65.323 Y42.188
G1 F1200 X59.311 Y36.176 E136.39261
G1 X59.241 Y36.106
G0 F2700 X59.875 Y36.176
G1 F1200 X65.323 Y41.623 E136.776
G1 X65.393 Y41.693
G0 F2700 X65.323 Y41.059
G1 F1200 X60.439 Y36.176 E137.11969
G1 X60.369 Y36.107
G0 F2700 X61.004 Y36.176
G1 F1200 X65.323 Y40.495 E137.42366
G1 X65.393 Y40.565
G0 F2700 X65.323 Y39.931
G1 F1200 X61.568 Y36.176 E137.68793
G1 X61.498 Y36.106
G0 F2700 X62.132 Y36.176
G1 F1200 X65.323 Y39.366 E137.91248
G1 X65.393 Y39.435
G0 F2700 X65.323 Y38.802
G1 F1200 X62.697 Y36.176 E138.09729
G1 X62.627 Y36.106
G0 F2700 X63.261 Y36.176
G1 F1200 X65.323 Y38.238 E138.24241
G1 X65.393 Y38.308
G0 F2700 X65.323 Y37.673
G1 F1200 X63.825 Y36.176 E138.34781
G1 X63.755 Y36.106
G0 F2700 X64.389 Y36.176
G1 F1200 X65.323 Y37.109 E138.41351
G1 X65.393 Y37.178
G0 F2700 X65.323 Y36.545
G1 F1200 X64.954 Y36.176 E138.43948
G0 F2700 X34.496 Y35.996
;TIME_ELAPSED:144.283638
;LAYER:1
G1 F3600 E131.93948
M106 S255
G0 F4050 X34.496 Y35.996 Z0.5
;TYPE:WALL-INNER
G1 F3600 E138.43948
G1 F1500 X65.504 Y35.996 E139.46823
G1 X65.504 Y64.004 E140.39745
G1 X34.496 Y64.004 E141.4262
G1 X34.496 Y35.996 E142.35542
G0 F4050 X34.097 Y35.597
G1 F1500 X65.903 Y35.597 E143.41065
G1 X65.903 Y64.403 E144.36634
G1 X34.097 Y64.403 E145.42157
G1 X34.097 Y35.597 E146.37727
G0 F4050 X33.699 Y35.199
;TYPE:WALL-OUTER
G1 F1500 X66.301 Y35.199 E147.4589
G1 X66.301 Y64.801 E148.44101
G1 X33.699 Y64.801 E149.52265
G1 X33.699 Y35.199 E150.50475
G0 F4050 X33.899 Y35.199
G0 X34.167 Y35.667
G0 X34.695 Y36.195
G0 X34.676 Y36.421
;TYPE:SKIN
G1 F1500 X34.923 Y36.174 E150.51634
G0 F4050 X35.487 Y36.174
G1 F1500 X34.676 Y36.985 E150.55439
G1 X34.606 Y37.055
G0 F4050 X34.676 Y37.55
G1 F1500 X36.051 Y36.174 E150.61893
G1 X36.12 Y36.104
G0 F4050 X36.616 Y36.174
G1 F1500 X34.676 Y38.114 E150.70995
G1 X34.606 Y38.184
G0 F4050 X34.676 Y38.678
G1 F1500 X37.18 Y36.174 E150.82744
G1 X37.25 Y36.104
G0 F4050 X37.744 Y36.174
G1 F1500 X34.676 Y39.243 E150.97141
G1 X34.606 Y39.313
G0 F4050 X34.676 Y39.807
G1 F1500 X38.308 Y36.174 E151.14184
G1 X38.377 Y36.104
G0 F4050 X38.873 Y36.174
G1 F1500 X34.676 Y40.371 E151.33877
G1 X34.606 Y40.441
G0 F4050 X34.676 Y40.935
G1 F1500 X39.437 Y36.174 E151.56215
G1 X39.507 Y36.104
G0 F4050 X40.001 Y36.174
G1 F1500 X34.676 Y41.5 E151.81202
G1 X34.606 Y41.57
G0 F4050 X34.676 Y42.064
G1 F1500 X40.566 Y36.174 E152.08837
G1 X40.636 Y36.104
G0 F4050 X41.13 Y36.174
G1 F1500 X34.676 Y42.628 E152.39119
G1 X34.606 Y42.698
G0 F4050 X34.676 Y43.192
G1 F1500 X41.694 Y36.174 E152.72047
G1 X41.764 Y36.104
G0 F4050 X42.258 Y36.174
G1 F1500 X34.676 Y43.757 E153.07624
G1 X34.606 Y43.827
G0 F4050 X34.676 Y44.321
G1 F1500 X42.823 Y36.174 E153.45849
G1 X42.893 Y36.104
G0 F4050 X43.387 Y36.174
G1 F1500 X34.676 Y44.885 E153.8672
G1 X34.606 Y44.955
G0 F4050 X34.676 Y45.449
G1 F1500 X43.951 Y36.174 E154.30238
G1 X44.021 Y36.104
G0 F4050 X44.515 Y36.174
G1 F1500 X34.676 Y46.014 E154.76404
G1 X34.606 Y46.084
G0 F4050 X34.676 Y46.578
G1 F1500 X45.08 Y36.174 E155.25219
G1 X45.15 Y36.104
G0 F4050 X45.644 Y36.174
G1 F1500 X34.676 Y47.142 E155.7668
G1 X34.606 Y47.212
G0 F4050 X34.676 Y47.707
G1 F1500 X46.208 Y36.174 E156.3079
G1 X46.278 Y36.104
G0 F4050 X46.772 Y36.174
G1 F1500 X34.676 Y48.271 E156.87546
G1 X34.606 Y48.341
G0 F4050 X34.676 Y48.835
G1 F1500 X47.337 Y36.174 E157.4695
G1 X47.407 Y36.104
G0 F4050 X47.901 Y36.174
G1 F1500 X34.676 Y49.399 E158.09001
G1 X34.606 Y49.469
G0 F4050 X34.676 Y49.964
G1 F1500 X48.465 Y36.174 E158.73701
G1 X48.535 Y36.104
G0 F4050 X49.03 Y36.174
G1 F1500 X34.676 Y50.528 E159.41049
G1 X34.606 Y50.598
G0 F4050 X34.676 Y51.092
G1 F1500 X49.594 Y36.174 E160.11043
G1 X49.664 Y36.104
G0 F4050 X50.157 Y36.175
G1 F1500 X34.676 Y51.656 E160.83679
G1 X34.606 Y51.726
G0 F4050 X34.676 Y52.221
G1 F1500 X50.722 Y36.175 E161.58966
G1 X50.792 Y36.105
G0 F4050 X51.286 Y36.175
G1 F1500 X34.676 Y52.785 E162.36899
G1 X34.606 Y52.855
G0 F4050 X34.676 Y53.349
G1 F1500 X51.85 Y36.175 E163.17478
G1 X51.92 Y36.105
G0 F4050 X52.414 Y36.175
G1 F1500 X34.676 Y53.914 E164.00706
G1 X34.606 Y53.984
G0 F4050 X34.676 Y54.478
G1 F1500 X52.979 Y36.175 E164.86582
G1 X53.049 Y36.105
G0 F4050 X53.543 Y36.175
G1 F1500 X34.676 Y55.042 E165.75105
G1 X34.606 Y55.112
G0 F4050 X34.676 Y55.606
G1 F1500 X54.107 Y36.175 E166.66274
G1 X54.177 Y36.105
G0 F4050 X54.672 Y36.175
G1 F1500 X34.676 Y56.171 E167.60094
G1 X34.606 Y56.241
G0 F4050 X34.676 Y56.735
G1 F1500 X55.236 Y36.175 E168.5656
G1 X55.306 Y36.105
G0 F4050 X55.8 Y36.175
G1 F1500 X34.676 Y57.299 E169.55672
G1 X34.606 Y57.369
G0 F4050 X34.676 Y57.863
G1 F1500 X56.364 Y36.175 E170.57431
G1 X56.434 Y36.105
